X: 26
T:Missa Gaudeamus / Credo
N: Derived from Jos0402c-Missa_Gaudeamus-Credo.krn
C: Josquin des Prez
%%abc-version 2.0
%%abcx-abcm2ps-target-version 5.9.1 (29 Sep 2008)
%%abc-creator hum2abc beta
%%abcx-conversion-date 2019/02/12 16:15:39
%%abc-edited-by Jesse Rodin
%%abc-edited-by Jesse Rodin; Victoria Chang 2011/04/11
%%abcx-initial-encoding-date 2011/04/11/
%%humdrum-veritas 3303941040
%%humdrum-veritas-data 1513426540
%%linebreak <none>
%%barnumbers 0
L: 1/4
M: 3/1
Q: 1/2=120
%%staves [1 2 3 4]
V: 1 clef=treble
V: 2 clef=treble-8
V: 3 clef=treble-8
V: 4 clef=bass
K: C
[V:1] z12 | 
[V:2] z4z4c3d | 
[V:3] G8A4 | 
[V:4] G,3A,B,2E,2z4 | 
[V:1] z12 | 
[V:2] e2A2z4z2A2 | 
[V:3] A4e6d2 | 
[V:4] z4A,3B,C2F,2 | 
[V:1] z12 | 
[V:2] B2c2d2A2d3c | 
[V:3] e4f6e2 | 
[V:4] G,2A,2D,8 | 
[V:1] G8A4 | 
[V:2] BAc2B4A2f2- | 
[V:3] e8z4 | 
[V:4] E,8z4 | 
[V:1] A4e6d2 | 
[V:2] fe/d/f2e2a4f2 | 
[V:3] z12 | 
[V:4] z12 | 
[V:1] e4f6e2 | 
[V:2] g2a4d2z2a2- | 
[V:3] z12 | 
[V:4] z12 | 
[V:1] e8z2e2- | 
[V:2] a2g2a2g2a3g | 
[V:3] z12 | 
[V:4] z12 | 
[V:1] e2d2e2d2e3d | 
[V:2] e2fg2af2e3f | 
[V:3] z12 | 
[V:4] z12 | 
[V:1] B2c4B2c2B2 | 
[V:2] g2c3AB2A2E2 | 
[V:3] e12 | 
[V:4] z2A,4G,2A,2G,2 | 
[V:1] c3BG2A4G2 | 
[V:2] c4B2A2E4 | 
[V:3] e12- | 
[V:4] A,3G,/F,/E,2C4B,2 | 
[V:1] A2G2E2A4^G2 | 
[V:2] c4z4G4 | 
[V:3] e8d4 | 
[V:4] A,2C4A,2B,4 | 
[V:1] A4c8 | 
[V:2] c6A2a4 | 
[V:3] e12- | 
[V:4] A,12 | 
[V:1] z2B4c2d2d2 | 
[V:2] g6e2f4 | 
[V:3] e8d4 | 
[V:4] E,3F,G,2A,2D,4 | 
[V:1] e4d2c2B4 | 
[V:2] e4z2d2g4 | 
[V:3] c4d8 | 
[V:4] A,4_B,4G,4 | 
[V:1] A4z4z4 | 
[V:2] f3ec3B/A/B2c2 | 
[V:3] d4e8 | 
[V:4] D,4A,4E,2A,2 | 
[V:1] z4z4e4 | 
[V:2] B2e3dd4^c2 | 
[V:3] g6f2e4 | 
[V:4] G,F,E,D,C,2D,2A,4 | 
[V:1] f4e2c2d2e2- | 
[V:2] d2_B2c_BAGF2c2 | 
[V:3] d4e4f2e2 | 
[V:4] z12 | 
[V:1] edd4^c2d4 | 
[V:2] d4A4z2A2 | 
[V:3] f4e4f4 | 
[V:4] z4z4D,4 | 
[V:1] B2c2d2e4d2 | 
[V:2] G2A3Bc2F3G | 
[V:3] e4f2e2f4 | 
[V:4] E,2A,,2D,2C,2D,3C, | 
[V:1] c2B3AA4^G2 | 
[V:2] A2B2c2A2B4 | 
[V:3] e12 | 
[V:4] A,,2G,,2A,,4E,4 | 
[V:1] A2c3Be4d2 | 
[V:2] z2A2e4f4 | 
[V:3] z12 | 
[V:4] F,4E,4z2D,2 | 
[V:1] e2c2d3ef2e2- | 
[V:2] e2a3fg2a3g | 
[V:3] z12 | 
[V:4] A,4_B,4A,4 | 
[V:1] ecdcA2e2d2f2- | 
[V:2] e2f3ec2d3c | 
[V:3] z12 | 
[V:4] z12 | 
[V:1] fec2d3cAGc2- | 
[V:2] A2e2d2f3ec2 | 
[V:3] z12 | 
[V:4] z12 | 
[V:1] cB/A/B2E2B2c2A2 | 
[V:2] d2B2c2d2c2d2 | 
[V:3] z12 | 
[V:4] z2G,2A,2G,2A,2D,2 | 
[V:1] B4c2d3cBA | 
[V:2] B2e3dB2c2d2 | 
[V:3] z12 | 
[V:4] G,3E,A,2G,2A,2D,2 | 
[V:1] G8z4 | 
[V:2] B2c4B3GA2 | 
[V:3] e8d4- | 
[V:4] E,2C,4G,4F,2 | 
[V:1] z12 | 
[V:2] G2d2e2f3e/d/e2 | 
[V:3] d4c8 | 
[V:4] _B,4A,8 | 
[V:1] A4A4_B4 | 
[V:2] f8g2d2 | 
[V:3] d12- | 
[V:4] z2D,6G,4 | 
[V:1] A2_B4A2B4 | 
[V:2] fedc_B3AG4 | 
[V:3] d8d4 | 
[V:4] D,2G,4F,2_B,3A, | 
[V:1] A4G2F2G3F | 
[V:2] z2d8c2 | 
[V:3] c2_B3AA4G2 | 
[V:4] F,2G,3F,D,2_E,3D, | 
[V:1] D2_B3AA4G2 | 
[V:2] f4F4G4 | 
[V:3] d4c2A2_B4 | 
[V:4] _B,,4z2F,3E,/D,/E,2 | 
[V:1] A4z4z4 | 
[V:2] z2F2G2A3G/F/G2 | 
[V:3] A2d4c2d4 | 
[V:4] F,E,D,C,_B,,2A,,2B,,4 | 
[V:1] z12 | 
[V:2] A4c4B4 | 
[V:3] c4z4z4 | 
[V:4] A,,4z2A,3^G,/^F,/G,2 | 
[V:1] z2A3GE2F4 | 
[V:2] z2A2B2c3B/A/B2 | 
[V:3] z12 | 
[V:4] A,G,F,E,D,2C,2D,4 | 
[V:1] E4z4z4 | 
[V:2] c4e4d4 | 
[V:3] z12 | 
[V:4] C,4z2C3B,/A,/B,2 | 
[V:1] z2c3BG2A4 | 
[V:2] z2c2d2e3d/c/d2 | 
[V:3] z12 | 
[V:4] CB,A,G,F,2E,2F,4 | 
[V:1] G2c3BA3GAG | 
[V:2] e4A8 | 
[V:3] c12- | 
[V:4] E,2A,3G,F,3E,F,E, | 
[V:1] E4z4A4 | 
[V:2] e8A4 | 
[V:3] c12- | 
[V:4] C,2C3B,A,3G,A,G, | 
[V:1] G2A3GABcBAG | 
[V:2] z4F4G4 | 
[V:3] c12 | 
[V:4] E,2F,3E,F,D,E,4 | 
[V:1] F12 | 
[V:2] A4z2_B2A2F2 | 
[V:3] d12- | 
[V:4] D,12 | 
[V:1] z4z4z2_B2 | 
[V:2] G3FD2A2_B2G2 | 
[V:3] d12- | 
[V:4] z2_B,2A,2F,2G,3F, | 
[V:1] A2F2G3FD4 | 
[V:2] A4G8 | 
[V:3] d12 | 
[V:4] D,4_B,8 | 
[V:1] C2c2B2Ac2BG2 | 
[V:2] c4z2c4B2 | 
[V:3] e12- | 
[V:4] A,4G,2A,2E,4 | 
[V:1] A2E2z2c4B2 | 
[V:2] Ac2BG2A2E2z2 | 
[V:3] e12- | 
[V:4] z2C2B,2A,C2B,G,2 | 
[V:1] A2G4EFGAB2- | 
[V:2] c4B2A2G2E2 | 
[V:3] e12- | 
[V:4] A,2E,4C2B,A,G,F, | 
[V:1] BAA4G2A2c2 | 
[V:2] G2A2B4A4 | 
[V:3] e12 | 
[V:4] E,2A,,2E,4A,,4 | 
[V:1] B4z2E2D2E2 | 
[V:2] G8z2c2 | 
[V:3] g12- | 
[V:4] z2E,3D,E,F,G,2C,2 | 
[V:1] z2E2D2E2z2E2 | 
[V:2] B2c2z2c2B2c2 | 
[V:3] g12 | 
[V:4] E,3F,G,2C,2G,2C,2 | 
[V:1] D2A4D2C2D2 | 
[V:2] A2d2c2d2z2d2 | 
[V:3] f12- | 
[V:4] D,E,F,G,A,2_B,2A,2D,2 | 
[V:1] z2d2c2d3^c/B/c2 | 
[V:2] c2d2A4z4 | 
[V:3] f8e4 | 
[V:4] A,2D,2F,3E,/D,/A,2A,,2 | 
[V:1] d4z4z4 | 
[V:2] z2d2c2d3^c/B/^c2 | 
[V:3] f4e2d2e4 | 
[V:4] D,3C,A,,2B,,2A,,2A,2 | 
[V:1] z2d2c2d3^c/B/c2 | 
[V:2] defga4A4 | 
[V:3] d4e8 | 
[V:4] _B,4A,4z2A,2 | 
[V:1] d4A4_B4 | 
[V:2] z4f4g2d2- | 
[V:3] d12 | 
[V:4] B,3CD2D,2G,3F, | 
[V:1] A2F2G2A3GA2 | 
[V:2] dBc2d2e2fedc | 
[V:3] z12 | 
[V:4] D,2A,2B,2C2D2D,2 | 
[V:1] _B2G4^F2G4 | 
[V:2] d2G2A4G4 | 
[V:3] z12 | 
[V:4] G,3F,D,2A,2B,3C | 
[V:1] z2F2G2A3Bd2 | 
[V:2] z4B2c2d4 | 
[V:3] z12 | 
[V:4] D2D,2G,2F,2D,4 | 
[V:1] c2B3AA4^G2 | 
[V:2] e4d2c2B4 | 
[V:3] z12 | 
[V:4] z4z2C,2D,2E,2 | 
[V:1] A2c4A2B2c2 | 
[V:2] A2a2g2a2g2e2 | 
[V:3] c8e4 | 
[V:4] F,3E,C,2F,2G,2A,2 | 
[V:1] d2B2c2d4d2 | 
[V:2] f2g2e2d3cBA | 
[V:3] d4g4f2g2- | 
[V:4] D,2G,2C,2G,2D,2G,2- | 
[V:1] d2d2c2e3dd2- | 
[V:2] B2A3Bc4B2 | 
[V:3] g2f4e2f4 | 
[V:4] G,F,D,2F,2C,2D,4 | 
[V:1] d2c2d2c2A3B | 
[V:2] c2A2B2c2d4 | 
[V:3] e2f3de2f4 | 
[V:4] A,,4z4D,4 | 
[V:1] cBc3BA4^G2 | 
[V:2] c2e3dcB/A/B4 | 
[V:3] e12 | 
[V:4] A,4G,2A,2E,4 | 
[V:1] A12 ||  
[V:2] A12 ||  
[V:3] e12 ||  
[V:4] A,,12 ||  
[V:1]  [K:C] [K:clef=treble][M:2/1]z8 | 
[V:2]  [K:C] [K:clef=treble-8][M:2/1]d8 | 
[V:3]  [K:C] [K:clef=treble-8][M:2/1]z8 | 
[V:4]  [K:C] [K:clef=bass][M:2/1]z8 | 
[V:1] z8 | 
[V:2] c4d4 | 
[V:3] z8 | 
[V:4] z8 | 
[V:1] z8 | 
[V:2] c4=B4 | 
[V:3] z8 | 
[V:4] z8 | 
[V:1] A8 | 
[V:2] A6c2- | 
[V:3] z8 | 
[V:4] z8 | 
[V:1] G4A4 | 
[V:2] cBe3df2- | 
[V:3] z8 | 
[V:4] z8 | 
[V:1] G4F4 | 
[V:2] fee4d2 | 
[V:3] z8 | 
[V:4] z8 | 
[V:1] E8 | 
[V:2] e4c4 | 
[V:3] z8 | 
[V:4] A,8 | 
[V:1] z4E4 | 
[V:2] d2e4dc | 
[V:3] z8 | 
[V:4] G,4A,4 | 
[V:1] G4A4 | 
[V:2] d2e4d2 | 
[V:3] z8 | 
[V:4] G,4F,4 | 
[V:1] B3AB2c2- | 
[V:2] g3fede2- | 
[V:3] z8 | 
[V:4] E,8- | 
[V:1] c2BAG3A | 
[V:2] e2dcB2e2- | 
[V:3] z8 | 
[V:4] E,8 | 
[V:1] Bcd3cBA | 
[V:2] edf3edc | 
[V:3] z8 | 
[V:4] z8 | 
[V:1] B2A4^G2 | 
[V:2] dcBAB2c2- | 
[V:3] z8 | 
[V:4] z8 | 
[V:1] A4z4 | 
[V:2] c2d4B2- | 
[V:3] z8 | 
[V:4] F,4D,4 | 
[V:1] z8 | 
[V:2] B2c4d2- | 
[V:3] z8 | 
[V:4] E,4F,4 | 
[V:1] z8 | 
[V:2] dcBAB4 | 
[V:3] z8 | 
[V:4] G,8 | 
[V:1] E4F4 | 
[V:2] A4z4 | 
[V:3] z8 | 
[V:4] A,8- | 
[V:1] E4A4 | 
[V:2] e4f4 | 
[V:3] z8 | 
[V:4] A,8 | 
[V:1] G2E2F3G | 
[V:2] e4a4 | 
[V:3] z8 | 
[V:4] z8 | 
[V:1] E2G2F2D2- | 
[V:2] g2e2f3g | 
[V:3] z8 | 
[V:4] z8 | 
[V:1] D2^CB,C4 | 
[V:2] e4z2a2- | 
[V:3] z8 | 
[V:4] A,8 | 
[V:1] D8 | 
[V:2] a2gfg4 | 
[V:3] z8 | 
[V:4] _B,8 | 
[V:1] z8 | 
[V:2] z2c4d2- | 
[V:3] z8 | 
[V:4] A,4F,4 | 
[V:1] z8 | 
[V:2] d2e2c2d2- | 
[V:3] z8 | 
[V:4] G,4A,2B,2- | 
[V:1] z4A4 | 
[V:2] d2cBA4 | 
[V:3] z8 | 
[V:4] B,A,G,4^F,2 | 
[V:1] B3cd2e2- | 
[V:2] G4z2g2- | 
[V:3] z8 | 
[V:4] G,8 | 
[V:1] e2f2d2e2- | 
[V:2] g2a2f2g2- | 
[V:3] z8 | 
[V:4] z8 | 
[V:1] edc4B2 | 
[V:2] g2fed4 | 
[V:3] z8 | 
[V:4] z8 | 
[V:1] c8 | 
[V:2] z4a4 | 
[V:3] z8 | 
[V:4] A,8 | 
[V:1] z4d4 | 
[V:2] g2f4ed | 
[V:3] z8 | 
[V:4] _B,8 | 
[V:1] c4f4 | 
[V:2] e4a4 | 
[V:3] z8 | 
[V:4] A,4F,4 | 
[V:1] e4d4- | 
[V:2] g4f4- | 
[V:3] z8 | 
[V:4] G,4_B,4 | 
[V:1] d2c2c4- | 
[V:2] f2e2c4 | 
[V:3] z8 | 
[V:4] A,8 | 
[V:1] c2BAB4 | 
[V:2] d8 | 
[V:3] z8 | 
[V:4] G,4z2G,2 | 
[V:1] E4z4 | 
[V:2] z4d4 | 
[V:3] z8 | 
[V:4] A,4G,4 | 
[V:1] z2G2A4 | 
[V:2] e4d4 | 
[V:3] z8 | 
[V:4] E,4z4 | 
[V:1] G4E4 | 
[V:2] B4z4 | 
[V:3] z8 | 
[V:4] z2G,2A,4 | 
[V:1] z4z2G2 | 
[V:2] z2d2e4 | 
[V:3] z8 | 
[V:4] G,4E,4 | 
[V:1] A4G4 | 
[V:2] d4B4 | 
[V:3] z8 | 
[V:4] F,2D,2E,4 | 
[V:1] E2F2D2E2- | 
[V:2] c2A2B4 | 
[V:3] z8 | 
[V:4] z4z2G,2 | 
[V:1] E2F2G4- | 
[V:2] z4z2d2 | 
[V:3] z8 | 
[V:4] A,4G,4 | 
[V:1] G2FGA4 | 
[V:2] e4d4 | 
[V:3] z8 | 
[V:4] E,4F,2D,2 | 
[V:1] z4A4 | 
[V:2] B4c2A2 | 
[V:3] z8 | 
[V:4] E,2G,2F,4 | 
[V:1] G2E2F3G | 
[V:2] B2c2d4 | 
[V:3] z8 | 
[V:4] E,4z4 | 
[V:1] E2G2F2G2- | 
[V:2] e4z4 | 
[V:3] z8 | 
[V:4] z8 | 
[V:1] GFE4D2 | 
[V:2] e4f4 | 
[V:3] z8 | 
[V:4] z8 | 
[V:1] E2G2F2G2- | 
[V:2] e2c2d2e2- | 
[V:3] z8 | 
[V:4] z8 | 
[V:1] GFEDE4 | 
[V:2] edd4^c2 | 
[V:3] z8 | 
[V:4] z8 | 
[V:1] D4z4 | 
[V:2] d4z4 | 
[V:3] z8 | 
[V:4] z2G,2F,2G,2- | 
[V:1] z8 | 
[V:2] e4f4 | 
[V:3] z8 | 
[V:4] G,F,E,4D,2 | 
[V:1] z8 | 
[V:2] e2c2d2e2- | 
[V:3] z8 | 
[V:4] E,2F,3E,G,2- | 
[V:1] z4G3A | 
[V:2] edd4c2 | 
[V:3] z8 | 
[V:4] G,F,E,D,E,4 | 
[V:1] Bcd3ce2- | 
[V:2] d2f3eg2- | 
[V:3] z8 | 
[V:4] D,4z4 | 
[V:1] edd4^c2 | 
[V:2] gfede4 | 
[V:3] z8 | 
[V:4] z8 | 
[V:1] d8 | 
[V:2] d8 | 
[V:3] z8 | 
[V:4] D,4G,4- | 
[V:1] z8 | 
[V:2] G4c4- | 
[V:3] z8 | 
[V:4] G,2E,2F,4 | 
[V:1] z4G4 | 
[V:2] c2A2B4 | 
[V:3] z8 | 
[V:4] E,8 | 
[V:1] c6A2 | 
[V:2] A4z2d2- | 
[V:3] z8 | 
[V:4] z8 | 
[V:1] B4A4 | 
[V:2] d2B2c2d2 | 
[V:3] z8 | 
[V:4] z4z2D,2 | 
[V:1] z8 | 
[V:2] B3cd2e2- | 
[V:3] z8 | 
[V:4] G,6E,2 | 
[V:1] z4z2G2- | 
[V:2] e2d2e4 | 
[V:3] z8 | 
[V:4] F,4E,3F, | 
[V:1] G2E2F2G2 | 
[V:2] z8 | 
[V:3] z8 | 
[V:4] G,2A,4G,2 | 
[V:1] E3FG2A2- | 
[V:2] z8 | 
[V:3] z8 | 
[V:4] C6A,2 | 
[V:1] A2^G2A4 | 
[V:2] z4e4 | 
[V:3] z8 | 
[V:4] B,4A,4 | 
[V:1] z4B4 | 
[V:2] f4e4 | 
[V:3] z8 | 
[V:4] D,4z4 | 
[V:1] c4B3G | 
[V:2] A2e3dB2 | 
[V:3] z8 | 
[V:4] z8 | 
[V:1] A2B4c2- | 
[V:2] c2d2B2e2- | 
[V:3] z8 | 
[V:4] z8 | 
[V:1] cBd3cBA | 
[V:2] edf3edc | 
[V:3] z8 | 
[V:4] z8 | 
[V:1] G4z4 | 
[V:2] B2e2d2e2- | 
[V:3] z8 | 
[V:4] z2E,2F,2G,2 | 
[V:1] z8 | 
[V:2] edB2c2d2 | 
[V:3] z8 | 
[V:4] E,2G,2A,2B,2- | 
[V:1] z2E2F2G2 | 
[V:2] A2c2B4 | 
[V:3] z8 | 
[V:4] B,A,A,4^G,2 | 
[V:1] E2G2A2B2- | 
[V:2] z2e2d2B2 | 
[V:3] z8 | 
[V:4] A,2E,2F,2G,2 | 
[V:1] BAA4^G2 | 
[V:2] c4B4 | 
[V:3] z8 | 
[V:4] E,2C,2D,2E,2 | 
[V:1] A2E2F2G2 | 
[V:2] z2A4G2 | 
[V:3] z8 | 
[V:4] A,,4z4 | 
[V:1] E2C2D2E2 | 
[V:2] A2e2f2g2 | 
[V:3] z8 | 
[V:4] z8 | 
[V:1] A,2E2F2G2 | 
[V:2] e2c2d2e2- | 
[V:3] z8 | 
[V:4] z8 | 
[V:1] E2G4FE | 
[V:2] e2dcB3A | 
[V:3] z8 | 
[V:4] z4E,3F, | 
[V:1] D8 | 
[V:2] B8 | 
[V:3] z8 | 
[V:4] G,2G,2G,4 | 
[V:1] z4E3F | 
[V:2] z2c2B2c2 | 
[V:3] z8 | 
[V:4] z2A,2G,2A,2 | 
[V:1] G2G2G2G2 | 
[V:2] B2c2B2e2- | 
[V:3] z8 | 
[V:4] E,8- | 
[V:1] G2G2G4 | 
[V:2] e2c2B4 | 
[V:3] z8 | 
[V:4] E,8 | 
[V:1] z2A3GE2 | 
[V:2] A4z2c2 | 
[V:3] z8 | 
[V:4] z8 | 
[V:1] F2G2E4 | 
[V:2] d2B2c3d | 
[V:3] z8 | 
[V:4] z4z2A,2- | 
[V:1] z2G2A2B2- | 
[V:2] e4z4 | 
[V:3] z8 | 
[V:4] A,G,E,2F,2G,2 | 
[V:1] BAB2c2d2 | 
[V:2] z2e4d2 | 
[V:3] z8 | 
[V:4] E,2G,2A,2B,2 | 
[V:1] B2c3AA2- | 
[V:2] e3cc2f2- | 
[V:3] z8 | 
[V:4] E,4F,3D, | 
[V:1] A2B2G2A2- | 
[V:2] fdd2edf2- | 
[V:3] z8 | 
[V:4] D,4z4 | 
[V:1] A2G2F4 | 
[V:2] fee4d2 | 
[V:3] z8 | 
[V:4] z8 | 
[V:1] E8 | 
[V:2] e2g3fa2- | 
[V:3] z8 | 
[V:4] z4C,4 | 
[V:1] z8 | 
[V:2] agfef4 | 
[V:3] z8 | 
[V:4] D,4D,4 | 
[V:1] z4c4 | 
[V:2] e4c4 | 
[V:3] z8 | 
[V:4] E,4A,4 | 
[V:1] B2A4GF | 
[V:2] d4d4 | 
[V:3] z8 | 
[V:4] G,2F,4E,D, | 
[V:1] E2e3dc2 | 
[V:2] e4c4 | 
[V:3] z8 | 
[V:4] C,2C3B,A,2 | 
[V:1] B2A4G2 | 
[V:2] d4c4 | 
[V:3] z8 | 
[V:4] G,2F,4E,2 | 
[V:1] F2E2D4 | 
[V:2] d8 | 
[V:3] z8 | 
[V:4] D,2C,2B,,4 | 
[V:1] C8 ||  
[V:2] e8 ||  
[V:3] z8 ||  
[V:4] A,,8 ||  
[V:1]  [K:C] [K:clef=treble][M:2/1]G4G4 | 
[V:2]  [K:C] [K:clef=treble-8][M:2/1]z8 | 
[V:3]  [K:C] [K:clef=treble-8][M:2/1]c8- | 
[V:4]  [K:C] [K:clef=bass][M:2/1]E,4E,4 | 
[V:1] A4G2A2- | 
[V:2] z8 | 
[V:3] c8- | 
[V:4] F,4E,2F,2- | 
[V:1] A2GFE4 | 
[V:2] z4g4 | 
[V:3] c8- | 
[V:4] F,2E,D,C,4- | 
[V:1] z8 | 
[V:2] g4a4 | 
[V:3] c8- | 
[V:4] C,4F,4 | 
[V:1] z8 | 
[V:2] g2a4gf | 
[V:3] c8- | 
[V:4] E,2F,4E,D, | 
[V:1] z4A4 | 
[V:2] e8 | 
[V:3] c8 | 
[V:4] A,8 | 
[V:1] A2_B2A2B2- | 
[V:2] z8 | 
[V:3] d8- | 
[V:4] z8 | 
[V:1] B2AGF4 | 
[V:2] z4A4 | 
[V:3] d8- | 
[V:4] z4D,4 | 
[V:1] z8 | 
[V:2] A2_B2A2_B2- | 
[V:3] d8- | 
[V:4] D,2G,2F,2G,2- | 
[V:1] z4A4 | 
[V:2] B2AGF4 | 
[V:3] d8 | 
[V:4] G,2F,E,D,4 | 
[V:1] c8- | 
[V:2] z2f2e2a2- | 
[V:3] c8- | 
[V:4] A,8- | 
[V:1] c6BA | 
[V:2] agg4f2 | 
[V:3] c8 | 
[V:4] A,8 | 
[V:1] B4A2d2- | 
[V:2] g2d2f4 | 
[V:3] d8- | 
[V:4] G,4F,2_B,2- | 
[V:1] dcc4B2 | 
[V:2] z2f2g4 | 
[V:3] d8 | 
[V:4] B,A,A,4G,2 | 
[V:1] c2F2E2A2- | 
[V:2] e2a2g2f2- | 
[V:3] c8- | 
[V:4] A,3B,C2F,2- | 
[V:1] AGG4^F2 | 
[V:2] f2edc4 | 
[V:3] c8 | 
[V:4] F,2G,2A,4 | 
[V:1] G4z4 | 
[V:2] z2d2c2f2- | 
[V:3] z8 | 
[V:4] G,4A,4 | 
[V:1] z8 | 
[V:2] fee4d2 | 
[V:3] z8 | 
[V:4] E,4F,4 | 
[V:1] z2G2F2_B2- | 
[V:2] e4z4 | 
[V:3] z8 | 
[V:4] C,4D,4 | 
[V:1] BAA4G2 | 
[V:2] z8 | 
[V:3] z8 | 
[V:4] A,,4_B,,4 | 
[V:1] A8- | 
[V:2] z4e4- | 
[V:3] c8- | 
[V:4] A,,8 | 
[V:1] A8 | 
[V:2] e4f4 | 
[V:3] c8 | 
[V:4] A,8 | 
[V:1] _B8- | 
[V:2] g4g4 | 
[V:3] d8- | 
[V:4] G,8- | 
[V:1] B8 | 
[V:2] g2g2g4 | 
[V:3] d8 | 
[V:4] G,8 | 
[V:1] A4D4 | 
[V:2] f3ga_ba2- | 
[V:3] d8- | 
[V:4] D,8- | 
[V:1] A6B2 | 
[V:2] agg4f2 | 
[V:3] d8 | 
[V:4] D,8 | 
[V:1] c6BA | 
[V:2] g4c4 | 
[V:3] e8- | 
[V:4] C,6D,2 | 
[V:1] G4A4 | 
[V:2] B2c4BA | 
[V:3] e8 | 
[V:4] E,4A,,4 | 
[V:1] z4B4- | 
[V:2] G4e4 | 
[V:3] g8- | 
[V:4] E,6F,2 | 
[V:1] B4c4 | 
[V:2] d2e4dc | 
[V:3] g8- | 
[V:4] G,4C,4 | 
[V:1] d4d4 | 
[V:2] B2c2d2e2 | 
[V:3] g8 | 
[V:4] G,8 | 
[V:1] d2d2d4 | 
[V:2] f2g2a4- | 
[V:3] f8 | 
[V:4] D,8 | 
[V:1] c3defe2- | 
[V:2] a8- | 
[V:3] e8- | 
[V:4] A,8- | 
[V:1] edd4^c2 | 
[V:2] a8- | 
[V:3] e8 | 
[V:4] A,8 | 
[V:1] d2A2B2c2- | 
[V:2] a4g4 | 
[V:3] f4e4 | 
[V:4] z8 | 
[V:1] cde2d2e2- | 
[V:2] a2g2a2g2 | 
[V:3] f2e2f2e2 | 
[V:4] z8 | 
[V:1] e2d2e4 | 
[V:2] a4A4 | 
[V:3] f4e4 | 
[V:4] z8 | 
[V:1] A2e2A2e2- | 
[V:2] d2c2d2c2 | 
[V:3] f2e2f2e2 | 
[V:4] z8 | 
[V:1] edd4^c2 | 
[V:2] d2B2A4 | 
[V:3] f2d2e4 | 
[V:4] z4A,4 | 
[V:1] d2f3edc | 
[V:2] z8 | 
[V:3] d8- | 
[V:4] _B,3A,F,2G,2- | 
[V:1] _B2A2B2A2- | 
[V:2] z4d3c | 
[V:3] d8 | 
[V:4] G,2F,2G,2F,2 | 
[V:1] A2d3c_BA | 
[V:2] def3edc | 
[V:3] z8 | 
[V:4] D,4z2G,2- | 
[V:1] G2A4G2 | 
[V:2] _B2A2_B4 | 
[V:3] z8 | 
[V:4] G,2F,2G,2E,2 | 
[V:1] A2c3BAG | 
[V:2] A8 | 
[V:3] z8 | 
[V:4] F,3E,C,2D,2- | 
[V:1] F2E2F2E2- | 
[V:2] z4A3G | 
[V:3] z8 | 
[V:4] D,2C,2D,2C,2 | 
[V:1] E2A3GFE | 
[V:2] ABc3BAG | 
[V:3] z8 | 
[V:4] A,,4z2D,2- | 
[V:1] D2E4D2 | 
[V:2] F2E2F4 | 
[V:3] z8 | 
[V:4] D,2C,2D,4 | 
[V:1] E8 | 
[V:2] E4z4 | 
[V:3] c8- | 
[V:4] A,,6B,,2 | 
[V:1] z8 | 
[V:2] e2f2g4 | 
[V:3] c8- | 
[V:4] C,2D,2E,4- | 
[V:1] z8 | 
[V:2] g4a4 | 
[V:3] c8- | 
[V:4] E,2C,2F,3E, | 
[V:1] E2F2G4 | 
[V:2] g2f2e4 | 
[V:3] c8- | 
[V:4] C,6D,2 | 
[V:1] G4A4 | 
[V:2] z8 | 
[V:3] c8- | 
[V:4] E,2C,2F,4 | 
[V:1] G2F2E4 | 
[V:2] z8 | 
[V:3] c8 | 
[V:4] E,4A,4 | 
[V:1] z2F4F2 | 
[V:2] z2A4A2 | 
[V:3] d8- | 
[V:4] z2D,4D,2 | 
[V:1] F2F2G4 | 
[V:2] _B2A2_B4 | 
[V:3] d8- | 
[V:4] D,2D,2G,4 | 
[V:1] A6D2 | 
[V:2] A6_B2- | 
[V:3] d8- | 
[V:4] F,6_B,,2 | 
[V:1] D4f4- | 
[V:2] B2AG_B2A2 | 
[V:3] d8- | 
[V:4] _B,,8- | 
[V:1] f4f4 | 
[V:2] F4_B4- | 
[V:3] d8- | 
[V:4] B,,8 | 
[V:1] f4f4 | 
[V:2] B8 | 
[V:3] d8 | 
[V:4] z4_B,,4 | 
[V:1] e3dcBA2- | 
[V:2] G4A4 | 
[V:3] c8- | 
[V:4] C,4A,,2F,2- | 
[V:1] A2GFE4 | 
[V:2] F4G4 | 
[V:3] c8- | 
[V:4] F,2E,D,C,4 | 
[V:1] z2A4G2 | 
[V:2] A3Bcde2 | 
[V:3] c8- | 
[V:4] z2F,4E,2 | 
[V:1] A2G2A2G2 | 
[V:2] A2e2z2e2- | 
[V:3] c8 | 
[V:4] F,2E,2F,2E,2 | 
[V:1] E2c4B2 | 
[V:2] ede2f2g2 | 
[V:3] z8 | 
[V:4] C,2A,4G,2 | 
[V:1] c2B2c2B2 | 
[V:2] e8 | 
[V:3] z8 | 
[V:4] A,2G,2A,2G,2 | 
[V:1] G4A4 | 
[V:2] z2e4d2 | 
[V:3] z8 | 
[V:4] E,4F,4 | 
[V:1] G3FG2A2 | 
[V:2] e2d2e2d2 | 
[V:3] z8 | 
[V:4] E,2G,3E,F,G, | 
[V:1] G3FG2A2 | 
[V:2] e2B2e2d2 | 
[V:3] z8 | 
[V:4] E,2G,3E,F,G, | 
[V:1] G2A4^G2 | 
[V:2] e2c2B4 | 
[V:3] z8 | 
[V:4] C,3D,E,4 | 
[V:1] A8 | 
[V:2] A8- | 
[V:3] c8- | 
[V:4] A,,4F,4- | 
[V:1] z4A4- | 
[V:2] A8- | 
[V:3] c8 | 
[V:4] F,4F,4 | 
[V:1] A4A4 | 
[V:2] A8 | 
[V:3] d8 | 
[V:4] F,4F,4 | 
[V:1] G4E4 | 
[V:2] c8 | 
[V:3] e8 | 
[V:4] C,8 | 
[V:1] F6ED | 
[V:2] F6G2 | 
[V:3] d8 | 
[V:4] D,8 | 
[V:1] C8 | 
[V:2] A4A4 | 
[V:3] e8 | 
[V:4] A,,8 | 
[V:1] F8 | 
[V:2] D8 | 
[V:3] d8 | 
[V:4] B,,8 | 
[V:1] E8 | 
[V:2] G8- | 
[V:3] c8 | 
[V:4] C,8 | 
[V:1] D8- | 
[V:2] G8 | 
[V:3] B8- | 
[V:4] G,,8 | 
[V:1] D8 | 
[V:2] F8 | 
[V:3] B8 | 
[V:4] D,8 | 
[V:1] E4c4 | 
[V:2] E4G4- | 
[V:3] c8 | 
[V:4] C,8 | 
[V:1] B4A4 | 
[V:2] G2F2E4 | 
[V:3] d4c4 | 
[V:4] G,,4A,,4 | 
[V:1] G2F4ED | 
[V:2] D2C2D4 | 
[V:3] d8 | 
[V:4] _B,,8 | 
[V:1] F2E2A3G | 
[V:2] A8- | 
[V:3] c8- | 
[V:4] A,,8- | 
[V:1] E8 ||  
[V:2] A8 ||  
[V:3] c8 ||  
[V:4] A,,8 ||  
[V:1]  [K:C] [K:clef=treble][M:3/1]E6F2G4 | 
[V:2]  [K:C] [K:clef=treble-8][M:3/1]A8_B4 | 
[V:3]  [K:C] [K:clef=treble-8][M:3/1]z12 | 
[V:4]  [K:C] [K:clef=bass][M:3/1]z12 | 
[V:1] A4G2F2D4 | 
[V:2] A4_B2A2_B4 | 
[V:3] z12 | 
[V:4] z12 | 
[V:1] C4z2C2F2G2 | 
[V:2] A8z2G2 | 
[V:3] z12 | 
[V:4] z12 | 
[V:1] A4z2C2F2G2 | 
[V:2] c2d2e4z2G2 | 
[V:3] z12 | 
[V:4] z12 | 
[V:1] A2B2c2A2B2d2 | 
[V:2] c2d2e2f2g3f | 
[V:3] z12 | 
[V:4] z12 | 
[V:1] c2A2B2c3BAG | 
[V:2] edf2edcBAGA2- | 
[V:3] z12 | 
[V:4] z12 | 
[V:1] F2E4A4^G2 | 
[V:2] AGABc2d2B4 | 
[V:3] z12 | 
[V:4] z12 | 
[V:1] A8z2A2- | 
[V:2] A4z2A2G2A2 | 
[V:3] c12- | 
[V:4] z2A,3G,F,E,/D,/E,2A,,2 | 
[V:1] AGFE/D/E2A,2z2A2- | 
[V:2] F4z2A2G2A2 | 
[V:3] c12- | 
[V:4] z2A,3G,F,E,/D,/E,2A,,2 | 
[V:1] AGFE/D/E2A,2z2E2 | 
[V:2] F4A4G4 | 
[V:3] c12 | 
[V:4] z2A,3G,F,E,/D,/E,4 | 
[V:1] F2GA2Bc3BA2 | 
[V:2] A8c2d2 | 
[V:3] d6e4f2 | 
[V:4] D,4z2A,3G,F,E,/D,/ | 
[V:1] G2A4c3BA2 | 
[V:2] B2c2d2c2ABcd | 
[V:3] g2e2f2e2f4 | 
[V:4] E,2A,,2z2A,3G,F,E,/D,/ | 
[V:1] G2c3BA2G2A2- | 
[V:2] B2A4d3B^c2 | 
[V:3] e3de2f2e4 | 
[V:4] E,2A,3G,F,E,/D,/E,2A,,2 | 
[V:1] AGFE/D/E2D2z4 | 
[V:2] d4z4z2d2- | 
[V:3] d4z4z4 | 
[V:4] z2D,3C,B,,A,,/G,,/A,,2G,,2 | 
[V:1] z12 | 
[V:2] dcBA/G/A2G2z2g2- | 
[V:3] z12 | 
[V:4] z2G,3F,E,D,/C,/D,2C,2 | 
[V:1] z4z4z2A2- | 
[V:2] gfed/c/d2c2z4 | 
[V:3] z12 | 
[V:4] z2C3B,A,G,/F,/G,2F,2 | 
[V:1] AGFE/D/E2D2z4 | 
[V:2] z4z4z2d2- | 
[V:3] z12 | 
[V:4] z2A,3G,F,E,/D,/E,2D,2 | 
[V:1] z2G3FED/C/D2C2 | 
[V:2] dcBAG2A2F2A2- | 
[V:3] z12 | 
[V:4] z2E,3D,C,B,,/A,,/B,,2A,,2 | 
[V:1] z2c3BA2G2E2 | 
[V:2] ABcde2f2g4 | 
[V:3] c12 | 
[V:4] z2A,3G,F,2E,D,E,2 | 
[V:1] F2Ec2BA4^G2 | 
[V:2] a4A4B4 | 
[V:3] d2A2c2d2e4 | 
[V:4] D,2A,3G,F,2E,D,E,2 | 
[V:1] [M:9/2](3:2:7A4c2B2A4F2G3F | 
[V:2] A4z4z4 | 
[V:3] [M:9/2](3:2:7c4c2d4c2d2B2c2- | 
[V:4] [M:9/2](3:2:7A,,4A,2G,2F,3E,D,2E,4 | 
[V:1] (3:2:8E DC4D2F3GA4^G2 | 
[V:2] [M:9/2](3:2:8c3d e fg2a2f4e4 | 
[V:3] (3:2:7c2A4B2c2d3cB4 | 
[V:4] (3:2:7A,,4A,2G,2F,3E,D,2E,4 | 
[V:1] [M:2/1]A2c2B2A2- | 
[V:2] [M:2/1]c4d2A2 | 
[V:3] [M:2/1]A4B2c2- | 
[V:4] [M:2/1]A,,2A,2G,2F,2- | 
[V:1] A2GFG2A2 | 
[V:2] f4e4 | 
[V:3] c2d2B2A2 | 
[V:4] F,2E,D,E,2A,,2 | 
[V:1] G2A2D2A2- | 
[V:2] d2c2d2A2 | 
[V:3] B2A2B2c2- | 
[V:4] z2A,2G,2F,2- | 
[V:1] A2GFGFED | 
[V:2] f4e4 | 
[V:3] c2d2B4 | 
[V:4] F,2E,D,E,4 | 
[V:1] C2D2E2F2 | 
[V:2] z2A3Bc2 | 
[V:3] A4c4 | 
[V:4] A,,4A,4 | 
[V:1] G4A4- | 
[V:2] d2B2c2d2 | 
[V:3] B4A4 | 
[V:4] G,4F,4 | 
[V:1] A2G2A2B2- | 
[V:2] e4f4 | 
[V:3] c4d4 | 
[V:4] E,4D,4 | 
[V:1] B2A4^G2 | 
[V:2] e8- | 
[V:3] B8 | 
[V:4] E,8 | 
[V:1] A8 |]  
[V:2] e8 |]  
[V:3] A8 |]  
[V:4] A,,8 |]  



